src/assets/images/industries/silo_white.svg

<svg width="28" height="43" viewBox="0 0 28 43" fill="none" xmlns="http://www.w3.org/2000/svg">
<mask id="mask0_1968_6527" style="mask-type:alpha" maskUnits="userSpaceOnUse" x="0" y="0" width="28" height="43">
<path d="M2.15625 19.5654V25.6131H25.395L22.7095 21.8288C22.7121 21.7376 25.264 21.8083 25.3119 21.7235C25.3669 21.6431 21.7256 21.4062 21.8036 21.3359C21.8373 21.3108 21.8732 21.2873 21.9113 21.2656C21.9362 21.2465 25.3669 25.6298 25.395 25.6131L25.6856 19.5654H2.15625Z" fill="black"/>
<path d="M25.8317 12.0059H2.15625V18.0535H25.8317V12.0059Z" fill="black"/>
<path d="M25.8317 19.5684H2.15625V25.616H25.8317V19.5684Z" fill="black"/>
<path d="M25.8317 4.44629H2.15625V10.4939H25.8317V4.44629Z" fill="black"/>
<path d="M13.9881 0L5.63281 2.93461H22.3434L13.9881 0Z" fill="black"/>
<path d="M2.15231 33.1726H0V43H2.15231V34.6845H3.87954L12.251 39.9762H15.7291L21.5231 36.3136V34.6845V33.1726V27.125H2.15231V33.1726Z" fill="black"/>
<path d="M25.8477 33.1726H28V43H25.8477V34.6845H24.1205L15.749 39.9762H12.2709L6.47687 36.3136V34.6845V33.1726V27.125H25.8477V33.1726Z" fill="black"/>
</mask>
<g mask="url(#mask0_1968_6527)">
<rect x="-5.09375" y="-3.59277" width="45.916" height="52.6922" fill="white"/>
</g>
</svg>

<svg xmlns="http://www.w3.org/2000/svg" width="28" height="43" fill="none"><mask id="a" width="28" height="43" x="0" y="0" maskUnits="userSpaceOnUse" style="mask-type:alpha"><path fill="#000" d="M2.156 19.565v6.048h23.239l-2.686-3.784c.003-.091 2.555-.02 2.603-.105.055-.08-3.586-.318-3.508-.388a1 1 0 0 1 .107-.07c.025-.02 3.456 4.364 3.484 4.347l.29-6.048zM25.832 12.006H2.156v6.047h23.676z"/><path fill="#000" d="M25.832 19.568H2.156v6.048h23.676zM25.832 4.446H2.156v6.048h23.676zM13.988 0 5.633 2.935h16.71zM2.152 33.173H0V43h2.152v-8.315H3.88l8.371 5.291h3.478l5.794-3.662v-9.189H2.153z"/><path fill="#000" d="M25.848 33.173H28V43h-2.152v-8.315H24.12l-8.372 5.291h-3.478l-5.794-3.662v-9.189h19.37z"/></mask><g mask="url(#a)"><path fill="#fff" d="M-5.094-3.593h45.916v52.692H-5.094z"/></g></svg>
